img/valentina_logo.svg

<?xml version="1.0" encoding="UTF-8" standalone="no"?>
<svg width="219px" height="88px" viewBox="0 0 219 88" version="1.1" xmlns="http://www.w3.org/2000/svg" xmlns:xlink="http://www.w3.org/1999/xlink" xmlns:sketch="http://www.bohemiancoding.com/sketch/ns">
    <!-- Generator: Sketch 3.3 (11970) - http://www.bohemiancoding.com/sketch -->
    <title>valentina_logo</title>
    <desc>Created with Sketch.</desc>
    <defs></defs>
    <g id="Page-1" stroke="none" stroke-width="1" fill="none" fill-rule="evenodd" sketch:type="MSPage">
        <g id="valentina_logo" sketch:type="MSLayerGroup" fill="#0B0B0A">
            <path d="M144.549244,34.2783419 C144.747623,34.3613742 145.118786,34.3869226 145.660597,34.3542774 C146.20312,34.3216323 146.63401,34.2272452 146.950422,34.0746645 C147.268256,33.9249226 147.839221,33.6105355 148.062487,32.8604065 C148.403786,31.7164065 148.3725,30.2204065 148.3725,30.2204065 C148.432227,27.1453742 146.766974,25.2157613 143.592185,26.1631806 C143.364653,26.294471 143.152052,26.4683419 142.95936,26.6798258 C142.570422,27.1027935 142.385552,28.4618258 142.409016,30.7576323 C142.645081,32.0066645 143.011977,32.8845355 143.506149,33.3912452 C143.99961,33.8986645 144.346597,34.1938903 144.549244,34.2783419 M200.75474,57.6473097 C200.546406,65.0102129 199.153481,70.6812452 196.578808,74.6554387 C194.001292,78.6303419 191.884529,79.5018258 190.226386,77.2691806 C188.568244,75.0379548 188.753114,69.9786645 190.781708,62.0827935 C192.811013,54.1897613 195.232812,49.7116968 198.044971,48.6514387 C200.055789,47.2846 200.960231,50.2829871 200.75474,57.6473097 M65.4746006,58.1902129 C66.7189188,52.1671806 68.0428734,45.6594387 69.4493084,38.6719548 C70.8550325,31.6851806 72.0190032,25.3832452 75.3793734,23.7147935 C78.1168734,22.3557613 79.1393474,26.2462129 77.6881169,31.5602774 C76.2375974,36.8743419 72.1661883,45.7516968 65.4746006,58.1902129 M46.6427338,57.6473097 C46.4351104,65.0102129 45.0436071,70.6812452 42.467513,74.6554387 C39.8921299,78.6303419 37.7739448,79.5018258 36.1158019,77.2691806 C34.4576591,75.0379548 34.6432403,69.9786645 36.6718344,62.0827935 C38.6990065,54.1897613 41.1208052,49.7116968 43.9329643,48.6514387 C45.9466266,47.2846 46.8496461,50.2829871 46.6427338,57.6473097 M91.9017857,41.3722774 C94.8618409,48.1220194 92.3902695,54.4388581 84.4842273,60.3249226 C84.4842273,52.2927935 86.9557987,45.9731161 91.9017857,41.3722774 M210.346656,74.3836323 C206.705425,74.9130516 205.062214,71.7329871 205.415601,64.842729 C205.415601,64.842729 205.645977,49.4966645 207.193198,43.4622774 C207.828867,40.9826645 206.051269,39.2531806 202.975315,38.5271806 C202.292006,40.5071806 201.878182,42.8916968 201.730997,45.6814387 C199.184055,40.0189226 195.764669,40.1232452 191.472127,45.9958258 C188.165084,50.5150516 184.737877,58.3875032 184.167623,68.7047935 C180.909643,77.0278903 178.425273,78.5189226 177.988695,75.4772452 C177.419864,71.4945355 179.834552,55.5140194 179.834552,55.5140194 C180.988568,47.8431161 181.033364,43.7986645 179.968227,43.3799548 C178.160055,40.7867935 172.845039,44.8312452 164.022468,55.5140194 C164.022468,55.5140194 165.768068,46.1718258 165.930185,43.0038258 C166.230244,37.2873742 162.011649,36.0000194 160.980643,39.1751161 C160.486471,40.6945355 160.114597,51.3219548 159.916929,58.4293742 C156.416484,70.5811806 152.798006,76.8781484 147.603156,75.8874387 C145.389692,75.464471 145.105987,71.5463419 144.77962,67.8354387 C144.66301,64.3466645 145.487815,60.1460839 145.843334,54.8050516 L147.521386,37.1035677 C145.477149,36.964471 144.160305,37.2156968 143.567299,37.8572452 C143.567299,37.8572452 140.302919,53.1238258 140.245325,66.3039548 C139.302487,69.6529226 138.220997,72.4916323 136.993032,74.8009226 C135.484919,77.6488581 133.626974,76.5403419 132.6045,73.6640194 C129.884065,66.0051806 132.325773,41.4368581 132.425318,40.9038903 C136.397182,40.9280194 140.251013,40.2744065 140.251013,40.2744065 C141.486799,38.6776323 140.906591,36.1376968 140.906591,36.1376968 C138.869464,36.4279548 133.48761,36.4279548 133.48761,36.4279548 C132.689114,36.5017613 132.158679,35.6728581 132.158679,35.6728581 C132.486468,25.7451806 131.95461,21.1046 132.248981,21.7000194 C131.887773,20.9676323 128.139886,20.0471806 127.667756,23.5898903 L127.223357,29.0295677 C126.956718,33.9973097 126.837263,36.4279548 124.913903,36.1618258 C122.98912,35.8971161 120.521104,35.8268581 117.630019,35.2207935 C117.630019,35.2207935 116.464627,38.6456968 119.975026,39.2240839 C121.297558,39.4412452 123.784773,40.2886 125.533218,40.3673742 L125.491266,49.5718903 C125.28151,54.8703419 125.282932,59.6869226 125.489844,64.0365355 C121.760445,75.7206645 118.051666,77.9164065 117.771516,73.8818903 C117.4935,69.8672452 119.470188,55.5140194 119.470188,55.5140194 C120.625627,47.8431161 120.669711,43.7986645 119.603153,43.3799548 C117.796403,40.7867935 112.481386,44.8312452 103.658815,55.5140194 C103.658815,55.5140194 105.403705,46.1718258 105.567955,43.0038258 C105.867302,37.2873742 101.648708,36.0000194 100.61699,39.1751161 C100.104331,40.752729 99.7232143,52.1423419 99.5319448,59.2220839 C96.724763,67.2698258 96.3770649,69.6224065 89.7252955,74.7186 C86.5007338,77.1889871 84.7508669,75.2473097 84.3953474,65.8483419 C92.5673182,57.3691161 96.4538571,51.3780194 96.0535422,47.876471 C95.6546494,44.3777613 95.1291916,41.9435677 94.4778799,40.576729 C93.5009123,38.4853097 92.0247955,37.0893742 90.3026591,37.7323419 C85.1782013,39.6456323 81.4168052,46.1292452 79.2879545,56.8936323 L78.7461429,64.1507935 C75.9780682,72.8436323 73.7077208,77.4891806 71.9365227,78.064729 C69.878776,78.7325355 68.2284545,76.0577613 66.9848474,70.0326 L67.0737273,66.2670516 C67.9618149,62.7236323 69.7010162,58.9240194 72.2920422,54.8660839 C74.8823571,50.8060194 77.25225,45.786471 79.3988766,39.8017613 C81.5455032,33.8198903 82.3816851,29.1069226 81.9081331,25.660729 C81.4345812,22.2166645 79.6349416,20.3814387 76.5113474,20.1586 C73.3877532,19.936471 70.8635649,21.8462129 69.0283734,25.9325355 C67.3147695,29.7470516 66.6627468,31.5808581 65.6530714,35.5131806 C64.3440487,40.6100839 63.1942987,46.0164065 62.7214578,51.8726645 C62.3751818,55.2649226 62.2244416,58.6153097 62.2422175,61.9280839 C60.8308052,69.1526 58.8306526,73.3106 56.2360714,74.3836323 C52.5941299,74.9130516 51.1464545,71.7429226 51.3064383,64.842729 C51.3569221,62.6789226 51.2616429,56.1825355 51.2616429,56.1825355 L51.6171623,50.1147935 C51.8830909,47.4676968 52.3715747,45.2485355 53.0833247,43.4622774 C53.3492532,40.8982129 51.9421071,39.2531806 48.8625974,38.5271806 C48.1814221,40.5071806 47.7675974,42.8916968 47.6204123,45.6814387 C45.0727597,40.0189226 41.6533734,40.1232452 37.3601201,45.9958258 C33.0661558,51.8655677 27.4695682,63.3559548 31.3639286,78.6076323 C31.6213247,79.6167935 33.2737792,82.2064065 33.2737792,82.2064065 C37.832961,86.8093742 42.3487695,82.4711161 46.8197825,69.1951806 C47.7085812,74.6341484 49.6205649,79.3982129 53.4822175,80.1575677 C56.8781396,80.8225355 59.9590714,76.9058258 62.6219123,71.3717613 C63.1054188,77.9980194 64.1214935,82.3973097 66.1849286,83.7542129 C68.7361364,85.4340194 71.2781006,84.9393742 73.1147143,83.9649871 C75.5635325,83.1807935 77.6774513,79.7722129 79.4586039,73.7584065 C81.5063961,81.3661484 86.1637013,82.6371806 91.6351461,78.0242774 C97.4613994,73.1097613 98.6175487,70.2831161 99.2553506,67.1215032 C98.9389383,72.1793742 98.6865195,77.008729 98.5080487,81.5783419 C99.2176656,82.7784065 100.372393,82.6953742 101.970097,81.3285355 C102.829032,64.8157613 107.078912,54.7312452 114.719026,51.0785355 C113.178916,66.5026645 113.510971,75.1898258 113.919107,77.6680194 C114.433188,80.7870516 116.141104,82.1382774 117.738097,81.9154387 C122.229019,81.2831161 124.374935,75.2125355 125.84963,69.1178258 C125.90438,69.6940839 125.95913,70.2710516 126.023123,70.8281484 C127.384052,76.8518903 129.249107,80.176729 131.619711,80.8047935 C133.987471,81.4342774 136.179604,80.6664065 138.193266,78.5040194 C139.215029,77.4061484 140.087474,76.2295032 140.812023,74.9783419 C140.968451,75.9576968 141.157588,76.8966 141.391519,77.7723419 C141.984526,80.0049871 143.995344,81.8870516 147.121071,81.9154387 C147.121071,81.9154387 153.959133,82.9657613 157.142455,74.2778903 C157.142455,74.2778903 158.536802,71.1702129 159.555721,68.1214387 C159.26775,72.8159548 159.037373,77.3096323 158.871701,81.5783419 C159.579896,82.7784065 160.735334,82.6953742 162.33375,81.3285355 C163.191974,64.8157613 167.441143,54.7312452 175.080545,51.0785355 C173.540435,66.5026645 173.87249,75.1898258 174.282049,77.6680194 C174.79613,80.7870516 176.502623,82.1382774 178.10175,81.9154387 C181.230321,81.4740194 183.217675,78.3890516 184.635487,74.5014387 C184.841688,75.8377613 185.118282,77.206729 185.475935,78.6076323 C185.73262,79.6167935 186.764338,81.4271806 187.385075,82.2064065 C191.477815,87.3387935 196.459354,82.4711161 200.9325,69.1951806 C201.818455,74.6341484 203.730438,79.3982129 207.594224,80.1575677 C211.050584,80.8338903 214.182711,76.7688581 216.876838,71.0779548 C219.304325,66.8390516 219.288682,62.8904065 216.83062,59.2369871 C215.409964,68.1349226 213.247695,73.1842774 210.346656,74.3836323 Z M29.3068929,24.6629226 C28.3363247,21.0669871 28.3277922,17.3851806 29.2820065,13.6167935 C30.2362208,9.84911613 30.9728571,8.84776129 31.4919156,10.6106 C32.010974,12.3812452 31.2828701,17.0622774 29.3068929,24.6629226 M45.2718506,32.7908581 C46.8709773,32.0790516 45.7219383,26.6578258 45.7219383,26.6578258 C45.7219383,26.6578258 35.2291364,31.5936323 32.7724968,29.0600839 C34.1803539,22.3188581 35.1935844,17.9295032 35.5291948,15.1369226 C35.8633831,12.3478903 34.638263,9.81647097 33.9528214,7.84569677 C33.2666688,5.87634194 31.3582403,6.22976129 28.2289578,8.9102129 C25.0968312,11.5899548 24.6204351,18.7172452 26.7976364,30.2906645 C21.4740877,59.6840839 14.4184481,81.6280194 11.7058344,78.4578903 C8.99393182,75.2898903 6.40290584,62.8506645 8.38528247,33.1691161 L10.8454773,4.02834194 C8.8695,-0.385141935 6.87859091,-0.921658065 4.86990584,2.41879355 L3.61492208,14.4350516 C2.77731818,22.0988581 1.84016883,31.7497613 0.802051948,43.3856323 C0.802051948,43.3856323 0.447954545,52.4354387 0.551766234,55.4473097 C1.19383442,74.2310516 4.82084416,84.5000839 8.3347987,86.5027935 C11.8494643,88.5047935 13.577289,87.9448581 15.1138442,87.3316968 C17.6735844,86.3118903 21.1733182,79.1654387 25.3584935,60.7450516 L31.7820195,34.5863419 C31.7820195,34.5863419 36.2636981,36.7998258 45.2718506,32.7908581" id="Fill-1" sketch:type="MSShapeGroup"></path>
            <path d="M204.202924,18.3881677 C204.202924,18.3881677 200.467836,14.9852645 199.168768,26.653071 C199.168768,26.653071 207.936589,20.981329 204.202924,18.3881677 M199.168768,26.653071 C203.389495,32.4887484 205.990476,29.4087484 205.990476,29.4087484 C206.800349,25.6815226 199.168768,26.653071 199.168768,26.653071 M194.945907,19.1986194 C194.945907,19.1986194 192.672716,21.1431355 199.168768,26.653071 C199.168768,26.653071 198.356761,17.2533935 194.945907,19.1986194 M182.93006,31.0296516 C177.083187,26.8162968 180.331924,22.2772 180.331924,22.2772 C184.067722,28.2753935 192.998372,29.4087484 192.998372,29.4087484 C189.263284,34.5957806 182.93006,31.0296516 182.93006,31.0296516 M170.345381,16.9865548 C169.716823,16.9865548 169.395433,16.5628774 169.395433,16.0377161 C169.395433,15.5139742 169.822057,15.0910065 170.345381,15.0910065 C170.872261,15.0910065 171.29533,15.5139742 171.29533,16.0377161 C171.29533,16.5628774 170.975362,16.9865548 170.345381,16.9865548 M181.144641,18.2256516 C181.144641,18.2256516 179.358511,12.5539097 172.699631,13.2011355 C172.699631,13.2011355 166.528524,13.6879742 166.205002,19.5229419 C166.205002,19.5229419 167.829726,17.7402323 168.316076,19.6854581 C168.316076,19.6854581 167.179836,28.1128774 170.427151,32.6512645 C170.427151,32.6512645 174.164372,38.6182323 181.813018,39.3193935 C180.688865,40.7841677 178.581346,42.2681032 178.581346,42.2681032 L173.83445,43.2098452 L177.375424,43.3581677 L174.754534,45.0755871 L178.34457,43.6782323 L177.698946,45.2203613 L179.516362,43.4057161 L182.249596,43.1324903 L180.401606,42.5761032 C181.862791,41.5165548 182.900907,40.359071 183.61408,39.3818452 C184.912437,39.3570065 186.307495,39.1824258 187.802099,38.8091355 C187.802099,38.8091355 197.868989,35.4055226 199.168768,26.653071 C199.168768,26.653071 188.127755,31.1914581 181.144641,18.2256516" id="Fill-3" sketch:type="MSShapeGroup"></path>
        </g>
    </g>
</svg>

<svg width="219" height="88" viewBox="0 0 219 88" xmlns="http://www.w3.org/2000/svg"><title>valentina_logo</title><g fill="#0B0B0A" fill-rule="evenodd"><path d="M144.55 34.278c.198.083.57.11 1.11.076.543-.032.974-.127 1.29-.28.318-.15.89-.463 1.112-1.214.342-1.144.31-2.64.31-2.64.06-3.075-1.605-5.004-4.78-4.057-.227.13-.44.305-.633.517-.39.423-.574 1.782-.55 4.078.235 1.25.602 2.127 1.096 2.633.494.51.84.804 1.043.888m56.205 23.37c-.21 7.362-1.602 13.033-4.176 17.007-2.58 3.975-4.695 4.847-6.354 2.614-1.658-2.232-1.473-7.29.556-15.187 2.03-7.893 4.45-12.37 7.263-13.432 2.01-1.365 2.915 1.633 2.71 8.997m-135.28.543c1.244-6.023 2.568-12.53 3.974-19.518 1.405-6.987 2.57-13.29 5.93-14.957 2.737-1.36 3.76 2.53 2.308 7.845-1.45 5.314-5.522 14.192-12.213 26.63m-18.832-.543c-.208 7.363-1.6 13.034-4.175 17.008-2.576 3.975-4.694 4.847-6.352 2.614-1.658-2.232-1.473-7.29.556-15.187 2.027-7.893 4.45-12.37 7.26-13.432 2.015-1.365 2.918 1.633 2.71 8.997m45.26-16.275c2.96 6.75.488 13.067-7.418 18.953 0-8.032 2.472-14.352 7.418-18.953m118.445 33.012c-3.642.53-5.285-2.65-4.93-9.54 0 0 .23-15.347 1.776-21.382.636-2.48-1.142-4.21-4.218-4.935-.683 1.98-1.097 4.365-1.244 7.154-2.546-5.66-5.965-5.557-10.258.316-3.307 4.52-6.734 12.392-7.304 22.71-3.258 8.322-5.743 9.813-6.18 6.77-.568-3.98 1.847-19.962 1.847-19.962 1.154-7.67 1.198-11.715.133-12.134-1.808-2.593-7.123 1.45-15.946 12.134 0 0 1.746-9.342 1.908-12.51.3-5.717-3.918-7.004-4.95-3.83-.494 1.52-.865 12.148-1.063 19.255-3.5 12.15-7.12 18.448-12.314 17.457-2.213-.423-2.497-4.34-2.823-8.052-.117-3.488.708-7.69 1.063-13.03l1.678-17.7c-2.043-.14-3.36.11-3.953.752 0 0-3.264 15.267-3.322 28.447-.943 3.35-2.024 6.188-3.252 8.497-1.508 2.85-3.366 1.74-4.388-1.136-2.72-7.66-.28-32.227-.18-32.76 3.972.024 7.826-.63 7.826-.63 1.237-1.596.657-4.136.657-4.136-2.038.29-7.42.29-7.42.29-.798.074-1.328-.755-1.328-.755.326-9.928-.205-14.568.09-13.973-.362-.732-4.11-1.653-4.582 1.89l-.445 5.44c-.266 4.967-.386 7.398-2.31 7.132-1.924-.265-4.392-.335-7.283-.94 0 0-1.165 3.424 2.345 4.002 1.323.217 3.81 1.065 5.558 1.143l-.042 9.205c-.208 5.298-.207 10.115 0 14.465-3.73 11.684-7.438 13.88-7.718 9.845-.28-4.015 1.698-18.368 1.698-18.368 1.156-7.67 1.2-11.715.133-12.134-1.807-2.593-7.122 1.45-15.944 12.134 0 0 1.744-9.342 1.908-12.51.3-5.717-3.92-7.004-4.95-3.83-.514 1.58-.895 12.968-1.086 20.048-2.807 8.048-3.155 10.4-9.807 15.497-3.224 2.47-4.974.527-5.33-8.872 8.172-8.48 12.06-14.47 11.66-17.972-.4-3.498-.926-5.932-1.577-7.3-.977-2.09-2.453-3.487-4.175-2.844-5.125 1.914-8.886 8.397-11.015 19.162l-.542 7.257c-2.768 8.694-5.038 13.34-6.81 13.915-2.057.668-3.708-2.007-4.95-8.032l.088-3.766c.888-3.543 2.627-7.343 5.218-11.4 2.59-4.06 4.96-9.08 7.107-15.065 2.146-5.982 2.982-10.695 2.508-14.14-.473-3.445-2.273-5.28-5.397-5.503-3.122-.224-5.646 1.686-7.482 5.773-1.713 3.814-2.365 5.648-3.375 9.58-1.31 5.097-2.46 10.503-2.932 16.36-.345 3.392-.496 6.742-.478 10.055-1.41 7.225-3.41 11.383-6.006 12.456-3.642.53-5.09-2.64-4.93-9.54.05-2.165-.044-8.66-.044-8.66l.355-6.07c.266-2.646.755-4.865 1.466-6.652.266-2.564-1.14-4.21-4.22-4.935-.682 1.98-1.095 4.365-1.243 7.154-2.547-5.66-5.967-5.557-10.26.316-4.294 5.87-9.89 17.36-5.996 32.612.257 1.01 1.91 3.598 1.91 3.598 4.56 4.603 9.075.265 13.546-13.01.89 5.438 2.8 10.202 6.662 10.962 3.396.665 6.477-3.252 9.14-8.786.483 6.626 1.5 11.025 3.563 12.382 2.55 1.68 5.093 1.185 6.93.21 2.45-.783 4.562-4.192 6.344-10.206 2.046 7.608 6.704 8.88 12.175 4.266 5.826-4.914 6.983-7.74 7.62-10.902-.316 5.057-.568 9.887-.747 14.456.71 1.2 1.864 1.117 3.462-.25.86-16.512 5.11-26.597 12.75-30.25-1.54 15.425-1.21 24.112-.8 26.59.513 3.12 2.22 4.47 3.818 4.247 4.49-.632 6.637-6.702 8.112-12.797.054.576.11 1.153.173 1.71 1.36 6.024 3.226 9.35 5.597 9.977 2.367.63 4.56-.14 6.573-2.3 1.022-1.1 1.894-2.275 2.62-3.527.155.98.345 1.92.58 2.794.592 2.233 2.602 4.115 5.728 4.143 0 0 6.84 1.05 10.022-7.637 0 0 1.395-3.108 2.414-6.157-.288 4.696-.52 9.19-.684 13.458.708 1.2 1.863 1.117 3.462-.25.858-16.512 5.107-26.597 12.747-30.25-1.54 15.425-1.208 24.112-.798 26.59.514 3.12 2.22 4.47 3.82 4.247 3.128-.44 5.116-3.526 6.533-7.414.207 1.338.483 2.707.84 4.108.258 1.01 1.29 2.82 1.91 3.598 4.093 5.133 9.074.265 13.548-13.01.885 5.438 2.797 10.202 6.66 10.962 3.458.676 6.59-3.39 9.284-9.08 2.427-4.24 2.412-8.188-.046-11.84-1.42 8.897-3.582 13.946-6.483 15.146zm-181.04-49.72c-.97-3.597-.98-7.28-.025-11.047.954-3.768 1.69-4.77 2.21-3.006.52 1.77-.21 6.452-2.185 14.053m15.965 8.128c1.6-.71.45-6.132.45-6.132s-10.493 4.936-12.95 2.402c1.408-6.74 2.422-11.13 2.757-13.923.333-2.79-.892-5.32-1.577-7.29-.686-1.97-2.595-1.617-5.724 1.063-3.133 2.68-3.61 9.807-1.432 21.38-5.324 29.394-12.38 51.338-15.092 48.168-2.712-3.168-5.303-15.607-3.32-45.29l2.46-29.14C8.87-.385 6.878-.922 4.87 2.418L3.615 14.436C2.777 22.1 1.84 31.75.802 43.385c0 0-.354 9.05-.25 12.062.642 18.784 4.27 29.053 7.783 31.056 3.514 2.002 5.242 1.442 6.78.83 2.56-1.02 6.058-8.168 10.243-26.588l6.424-26.16s4.482 2.215 13.49-1.794M204.203 18.388s-3.735-3.403-5.034 8.265c0 0 8.767-5.672 5.033-8.265m-5.034 8.265c4.22 5.836 6.82 2.756 6.82 2.756.81-3.728-6.82-2.757-6.82-2.757m-4.224-7.454s-2.273 1.943 4.223 7.453c0 0-.813-9.4-4.224-7.454M182.93 31.03c-5.847-4.214-2.598-8.753-2.598-8.753 3.736 5.998 12.666 7.132 12.666 7.132-3.735 5.186-10.068 1.62-10.068 1.62m-12.585-14.043c-.628 0-.95-.424-.95-.95 0-.523.427-.946.95-.946.527 0 .95.424.95.948 0 .525-.32.95-.95.95m10.8 1.238s-1.786-5.672-8.445-5.025c0 0-6.17.488-6.495 6.323 0 0 1.625-1.783 2.11.162 0 0-1.135 8.428 2.112 12.966 0 0 3.737 5.968 11.386 6.67-1.124 1.464-3.232 2.948-3.232 2.948l-4.746.942 3.54.148-2.62 1.718 3.59-1.398-.645 1.542 1.816-1.814 2.734-.274-1.848-.556c1.46-1.06 2.5-2.217 3.212-3.194 1.298-.025 2.693-.2 4.188-.573 0 0 10.067-3.404 11.367-12.157 0 0-11.042 4.538-18.025-8.427"/></g></svg>
